X:5908
T:Gan Ainm
R:Jig
S:Frank Simons (Guitar)
H:
N:
D:
Z:Adrian Scahill
M:6/8
L:1/8
K:G
dBG cGE|DB,D G3|BAB dBG|dcB ABc|\
dBG cGE|DB,D G3|BAB dBA|AGF G3:||\
dGg ecA|fef g3|(3efg e dBG|dcB ABc|\
1 dGg ecA|fef g3|(3efg e dBG|AGF G3:|2 dBG cGE|DB,D G3|BAB dBA|AGF G3||
